packages/core/src/svgs/tokens/mono/HYVE.svg

<svg width="24" height="24" viewBox="0 0 24 24" fill="none" xmlns="http://www.w3.org/2000/svg">
<path d="M11.9997 2C12.7275 2 13.3608 2.45001 13.6664 3.11112H10.3331C10.6386 2.45001 11.272 2 11.9997 2ZM11.9997 22C11.6457 21.9898 11.3017 21.8801 11.007 21.6836C10.7122 21.4871 10.4788 21.2117 10.3331 20.8889H13.6664C13.5207 21.2117 13.2872 21.4871 12.9924 21.6836C12.6978 21.8801 12.3537 21.9898 11.9997 22ZM14.222 12C14.222 12.5894 13.9879 13.1546 13.5711 13.5713C13.1543 13.9881 12.5891 14.2222 11.9997 14.2222C11.4104 14.2222 10.8451 13.9881 10.4283 13.5713C10.0116 13.1546 9.77748 12.5894 9.77748 12C9.77748 11.4107 10.0116 10.8454 10.4283 10.4286C10.8451 10.012 11.4104 9.77773 11.9997 9.77773C12.5891 9.77773 13.1543 10.012 13.5711 10.4286C13.9879 10.8454 14.222 11.4107 14.222 12ZM9.22195 14.2222H5.88861C5.59394 14.2222 5.31132 14.3393 5.10294 14.5477C4.89457 14.756 4.7775 15.0386 4.7775 15.3334C4.7775 15.6281 4.89457 15.9106 5.10294 16.1191C5.31132 16.3274 5.59394 16.4445 5.88861 16.4445H13.0942C13.2416 16.4445 13.3829 16.5031 13.487 16.6071C13.5912 16.7114 13.6498 16.8527 13.6498 17.0001C13.6498 17.1473 13.5912 17.2886 13.487 17.3928C13.3829 17.4971 13.2416 17.5555 13.0942 17.5555H7.55529C7.2606 17.5555 6.97798 17.6726 6.76961 17.881C6.56123 18.0893 6.44416 18.3721 6.44416 18.6667C6.44416 18.9613 6.56123 19.2439 6.76961 19.4524C6.97798 19.6607 7.2606 19.7778 7.55529 19.7778H16.4442C16.7389 19.7778 17.0214 19.6607 17.2299 19.4524C17.4382 19.2439 17.5553 18.9613 17.5553 18.6667C17.5553 18.3721 17.4382 18.0893 17.2299 17.881C17.0214 17.6726 16.7389 17.5555 16.4442 17.5555H16.022C15.8746 17.5555 15.7333 17.4971 15.6291 17.3928C15.5249 17.2886 15.4664 17.1473 15.4664 17.0001C15.4664 16.8527 15.5249 16.7114 15.6291 16.6071C15.7333 16.5031 15.8746 16.4445 16.022 16.4445H18.1109C18.4055 16.4445 18.6881 16.3274 18.8965 16.1191C19.1049 15.9106 19.2219 15.6281 19.2219 15.3334C19.2219 15.0386 19.1049 14.756 18.8965 14.5477C18.6881 14.3393 18.4055 14.2222 18.1109 14.2222H14.7776C14.222 14.9778 12.9831 15.4722 11.9497 15.4722C10.9164 15.4722 9.7719 14.9723 9.22195 14.2222ZM8.57751 13.1112H4.22195C3.92726 13.1112 3.64464 12.9941 3.43628 12.7857C3.2279 12.5773 3.11084 12.2948 3.11084 12C3.11084 11.7053 3.2279 11.4227 3.43628 11.2143C3.64464 11.006 3.92726 10.8889 4.22195 10.8889H8.57751C8.42585 11.2397 8.34761 11.6178 8.34761 12C8.34761 12.3823 8.42585 12.7604 8.57751 13.1112ZM15.322 13.1112C15.4737 12.7604 15.5518 12.3823 15.5518 12C15.5518 11.6178 15.4737 11.2397 15.322 10.8889H19.7775C20.0722 10.8889 20.3549 11.006 20.5632 11.2143C20.7715 11.4227 20.8887 11.7053 20.8887 12C20.8887 12.2948 20.7715 12.5773 20.5632 12.7857C20.3549 12.9941 20.0722 13.1112 19.7775 13.1112H15.322ZM8.11084 4.22223C7.81615 4.22223 7.53353 4.3393 7.32517 4.54767C7.11679 4.75604 6.99973 5.03865 6.99973 5.33334C6.99973 5.94445 7.39417 6.44446 8.01084 6.44446H8.11084C8.2664 6.44446 8.66639 6.44446 8.66639 7.00001C8.66639 7.56668 8.31083 7.55557 8.13862 7.55557H5.88861C5.59394 7.55557 5.31132 7.67262 5.10294 7.881C4.89457 8.08938 4.7775 8.37199 4.7775 8.66668C4.7775 8.96136 4.89457 9.24398 5.10294 9.45236C5.31132 9.66068 5.59394 9.77773 5.88861 9.77773H9.22195C9.76646 8.94446 10.9386 8.39445 12.0053 8.39445C13.0775 8.39445 14.2275 8.95001 14.7776 9.77773H18.1109C18.4055 9.77773 18.6881 9.66068 18.8965 9.45236C19.1049 9.24398 19.2219 8.96136 19.2219 8.66668C19.2219 8.37199 19.1049 8.08938 18.8965 7.881C18.6881 7.67262 18.4055 7.55557 18.1109 7.55557H10.8608C10.6942 7.55557 10.3331 7.56112 10.3331 7.00001C10.3331 6.44446 10.7331 6.44446 10.8887 6.44446H15.8886C16.1833 6.44446 16.466 6.32739 16.6743 6.11901C16.8826 5.91064 16.9998 5.62803 16.9998 5.33334C16.9998 5.03865 16.8826 4.75604 16.6743 4.54767C16.466 4.3393 16.1833 4.22223 15.8886 4.22223H8.11084Z" fill="white"/>
</svg>

<svg xmlns="http://www.w3.org/2000/svg" width="24" height="24" fill="none" viewBox="0 0 24 24">
    <path fill="#fff" d="M12 2c.727 0 1.36.45 1.666 1.111h-3.333C10.64 2.45 11.272 2 12 2m0 20a1.89 1.89 0 0 1-1.667-1.111h3.333A1.89 1.89 0 0 1 12 22m2.222-10a2.222 2.222 0 1 1-4.444 0 2.222 2.222 0 0 1 4.444 0m-5 2.222H5.889a1.111 1.111 0 0 0 0 2.223h7.205a.556.556 0 0 1 0 1.11H7.555a1.111 1.111 0 0 0 0 2.223h8.89a1.112 1.112 0 0 0 0-2.222h-.423a.555.555 0 1 1 0-1.111h2.089a1.111 1.111 0 0 0 0-2.223h-3.333c-.556.756-1.795 1.25-2.828 1.25-1.034 0-2.178-.5-2.728-1.25m-.644-1.11H4.222a1.111 1.111 0 0 1 0-2.223h4.356a2.8 2.8 0 0 0 0 2.222m6.744 0a2.8 2.8 0 0 0 0-2.223h4.456a1.111 1.111 0 0 1 0 2.222zm-7.211-8.89A1.11 1.11 0 0 0 7 5.333c0 .611.394 1.111 1.01 1.111h.1c.156 0 .556 0 .556.556 0 .567-.355.556-.527.556h-2.25a1.111 1.111 0 1 0 0 2.222h3.333c.544-.834 1.717-1.384 2.783-1.384 1.072 0 2.222.556 2.773 1.384h3.333a1.111 1.111 0 0 0 0-2.222h-7.25c-.167 0-.528.005-.528-.556 0-.556.4-.556.556-.556h5a1.111 1.111 0 1 0 0-2.222z"/>
</svg>
